X:1846
T:Nyset
R:Polska
S:Anton Teljebäck
Z:Anton Teljebäck
M:3/4
L:1/16
K:Gmix
|:d3c BGBc d2e2 | c3B AFAB c2d2 | B3A G2A2 B2GB | A2G2 F2E2 D2_B,2 | 
[G,Dd]3c BGBc d2e2 | c3B AFAB c2d2 | B3A G2A2 B2GB | A2F2 G4 :| 
|: G3F D2F2 G2A2 | B2AG FGAF G3F | D2E2 F2F2 E2C2 |  G3F D2F2 G2A2 | B2AG FGAF D3C  | _B,2A,2 G,2G2 FGAF | 
 G3F D2F2 G2A2 | B2AG FGAF G3F | D2E2 F2F2 E2C2 |  G3F D2F2 G2A2 | B2AG FGAF D3C  | _B,2A,2 G,2G2 FGAF | G2G2 G2G2 G2G2 :|
(:musicend:)
(:music:)
